X: 1
T: Somogyi Karik\'azo
N: Women's circle dance
O: Hungary
C: Trad.
Z: John Chambers <jc@trillian.mit.edu> http://trillian.mit.edu/~jc/music/
Z: http://swissnet.ai.mit.edu/~jaffer/CFO.html
M: 2/2
L: 1/4
K: Em
P: A x 4; legato
Q: 1/2=65
| "E"e2 e2 | B3 ^c | "Bm"d2 B2 | "E"e2 e2 | B3 A | ^G2 E2 |
| "D"A2 A2 | E3 F | "C"G2 A2 | "Am"B2 A2 | "D"E3 D | "Em"E2 Ez ||
P: B x 3; lighter
Q: 1/2=75
| "Em"B<B eB | "Am"A E "B7"G<F | "Em"E2 Ez \
| "C"e e e e | "D7"AB c<d | "G"B2 Bz |
| "C"e e e e | "D7"AB c<d | "G"B2 Gz \
| "Am"AA Bc | "Em"BE "B7"G<F | "Em"E2 E/F/4G/4 A/4B/4c/4d/4 |
"C"[eG][eG] [eG][eG] | "D7"[AC][BD] [cE]<[dF] | "G"[B2D2] [G2B,2] \
| "Am"[AC][AC]  [BD][cE] | "Em"[BE][EB,] "B7"[GB,]<[FA,] \
| "Em"[EG,][EG,] [EG,]z ||
